X:1615
L:1/8
Q:1/8=160
M:6/8
K:G
 D | GFG AGA | Bge dBA | BAB GAB | AGE E2 D | GFG AGA | Gge dBA | BAB GAB | AGF G2 :| f | gfe gfe | 
 efg dBA | Bee dBA | Bee e2 f |1 gfe fed | efg dBA | BAB GAB | AGF G2 :|2 gbg faf | ege dBA | 
 BAB GAB | AGF G3 |]

